godot/editor/icons/FadeCross.svg

<svg height="16" viewBox="0 0 16 16" width="16" xmlns="http://www.w3.org/2000/svg"><path d="m9 1v2h2.586l-3.586 3.586-4.293-4.293-1.414 1.414 4.293 4.293-4.293 4.293 1.414 1.414 4.293-4.293 3.586 3.586h-2.586v2h5a1 1 0 0 0 1-1v-5h-2v2.586l-3.586-3.586 3.586-3.586v2.586h2v-5a1 1 0 0 0 -1-1z" fill="#e0e0e0"/></svg>

<?xml version="1.0" encoding="UTF-8" standalone="no"?>
<svg
   height="16"
   viewBox="0 0 16 16"
   width="16"
   version="1.1"
   id="svg4"
   sodipodi:docname="FadeCross.svg"
   inkscape:version="1.1.2 (0a00cf5339, 2022-02-04)"
   xmlns:inkscape="http://www.inkscape.org/namespaces/inkscape"
   xmlns:sodipodi="http://sodipodi.sourceforge.net/DTD/sodipodi-0.dtd"
   xmlns="http://www.w3.org/2000/svg"
   xmlns:svg="http://www.w3.org/2000/svg">
  <defs
     id="defs8" />
  <sodipodi:namedview
     id="namedview6"
     pagecolor="#ffffff"
     bordercolor="#666666"
     borderopacity="1.0"
     inkscape:pageshadow="2"
     inkscape:pageopacity="0.0"
     inkscape:pagecheckerboard="0"
     showgrid="false"
     inkscape:zoom="54.5625"
     inkscape:cx="8.1924399"
     inkscape:cy="8.4398625"
     inkscape:window-width="2490"
     inkscape:window-height="1376"
     inkscape:window-x="70"
     inkscape:window-y="27"
     inkscape:window-maximized="1"
     inkscape:current-layer="svg4" />
  <path
     d="M9 1v2h2.586L8 6.586 3.707 2.293 2.293 3.707 6.586 8l-4.293 4.293 1.414 1.414L8 9.414 11.586 13H9v2h5a1 1 0 0 0 1-1V9h-2v2.586L9.414 8 13 4.414V7h2V2a1 1 0 0 0-1-1z"
     fill="#e0e0e0"
     id="path2" />
</svg>
